src/icons/snail.svg

<svg xmlns="http://www.w3.org/2000/svg"  viewBox="0 0 50 50" width="32px" height="32px"><path d="M 39.90625 2 C 37.5625 2 36.417969 5.558594 37.46875 11.46875 C 37.894531 11.347656 38.347656 11.246094 38.8125 11.1875 C 37.875 4.089844 41.460938 7.148438 42 4.09375 C 42.199219 2.894531 41.207031 2 39.90625 2 Z M 47.5625 4.03125 C 45.71875 4.203125 43.753906 6.71875 42.28125 11.34375 C 42.765625 11.449219 43.234375 11.582031 43.6875 11.75 C 46.101563 5.15625 47.808594 9.597656 49.6875 7.09375 C 50.386719 6.195313 49.914063 4.914063 48.8125 4.3125 C 48.40625 4.101563 47.988281 3.992188 47.5625 4.03125 Z M 40 13.09375 C 35.191406 13.09375 33 17.285156 33 21.1875 C 33 21.839844 32.980469 22.597656 32.9375 23.375 C 33.710938 25.304688 34.082031 27.363281 34 29.46875 C 34 29.480469 34 29.488281 34 29.5 C 34 29.507813 34 29.523438 34 29.53125 C 34 29.546875 34 29.546875 34 29.5625 L 34 29.71875 C 33.65625 33.257813 31.519531 35.921875 29.78125 37.53125 C 29.539063 37.757813 29.261719 37.957031 29 38.15625 C 28.890625 38.242188 28.769531 38.324219 28.65625 38.40625 C 28.648438 38.414063 28.664063 38.429688 28.65625 38.4375 C 28.515625 38.535156 28.363281 38.628906 28.21875 38.71875 C 28.066406 38.816406 27.90625 38.910156 27.75 39 C 27.195313 39.3125 26.609375 39.570313 26 39.78125 C 25.964844 39.792969 25.941406 39.800781 25.90625 39.8125 C 25.167969 40.058594 24.382813 40.242188 23.5625 40.34375 C 23.433594 40.359375 23.285156 40.363281 23.15625 40.375 C 23.078125 40.382813 23.015625 40.402344 22.9375 40.40625 L 20.875 40.5625 L 20.875 40.4375 C 20.234375 40.953125 19.65625 41.308594 19.25 41.5 C 19.0625 41.59375 18.839844 41.671875 18.625 41.75 C 18.515625 41.792969 18.425781 41.835938 18.3125 41.875 C 17.199219 42.269531 16.265625 42.367188 16.21875 42.375 C 16.195313 42.378906 16.179688 42.402344 16.15625 42.40625 C 16.148438 42.410156 16.132813 42.40625 16.125 42.40625 C 15.859375 42.453125 15.585938 42.492188 15.3125 42.53125 C 15.273438 42.539063 15.226563 42.554688 15.1875 42.5625 C 13.832031 42.753906 12.390625 42.878906 11 42.96875 L 10.8125 42.96875 C 10.738281 42.96875 10.605469 42.972656 10.46875 42.96875 C 10.410156 42.96875 10.347656 42.941406 10.28125 42.9375 C 10.109375 42.929688 9.914063 42.917969 9.6875 42.90625 C 9.667969 42.902344 9.613281 42.910156 9.59375 42.90625 C 9.125 42.875 8.554688 42.839844 7.90625 42.75 L 7.84375 42.71875 C 7.464844 42.664063 7.078125 42.609375 6.65625 42.53125 L 6.09375 42.4375 L 6.09375 42.40625 C 5.097656 42.1875 4.011719 41.894531 2.9375 41.46875 C 0.941406 41.730469 0 42.21875 0 43.3125 C 0 47.878906 20.8125 48 23.1875 48 C 43.3125 48 43.976563 33.109375 44 26.71875 C 46.382813 25.378906 48 22.835938 48 20.3125 C 48 16.34375 44.410156 13.09375 40 13.09375 Z M 17 15 C 12.804688 15 8.753906 16.671875 5.90625 19.59375 C 3.285156 22.285156 1.902344 25.808594 2 29.53125 C 2.164063 33.855469 4.027344 37.828125 7.03125 40.5625 C 9.179688 40.96875 10.816406 40.96875 10.84375 40.96875 C 13.484375 40.800781 16.769531 40.503906 18.34375 39.71875 C 19.566406 39.144531 23 36.515625 23 32.09375 C 23 26.476563 18.808594 25 16.59375 25 C 14.105469 25 13 26.507813 13 28 C 13 29.285156 13.757813 31.1875 15.8125 31.1875 C 16.363281 31.1875 16.8125 31.636719 16.8125 32.1875 C 16.8125 32.738281 16.363281 33.1875 15.8125 33.1875 C 12.695313 33.1875 11 30.519531 11 28 C 11 25.515625 12.917969 23 16.59375 23 C 19.96875 23 25 25.417969 25 32.09375 C 25 36.726563 23.96875 37.28125 22.78125 38.34375 C 22.78125 38.367188 22.78125 38.382813 22.78125 38.40625 C 25.011719 38.234375 26.902344 37.453125 28.40625 36.0625 C 30.214844 34.386719 31.75 32.113281 32 29.5 C 32.375 21.59375 25.410156 15 17 15 Z"/></svg>

<svg role="img" viewBox="0 0 50 50" xmlns="http://www.w3.org/2000/svg"><path d="M39.906 2c-2.343 0-3.488 3.559-2.437 9.469a9.093 9.093 0 0 1 1.343-.281c-.936-7.098 2.65-4.04 3.188-7.095C42.2 2.894 41.207 2 39.906 2m7.657 2.031c-1.844.172-3.81 2.688-5.282 7.313.485.105.953.238 1.407.406 2.414-6.594 4.12-2.152 6-4.656.699-.899.226-2.18-.876-2.782-.406-.21-.824-.32-1.25-.28M40 13.094c-4.809 0-7 4.191-7 8.094 0 .652-.02 1.41-.062 2.187A14.774 14.774 0 0 1 34 29.469v.25c-.344 3.539-2.48 6.203-4.219 7.812-.242.227-.52.426-.781.625-.11.086-.23.168-.344.25-.008.008.008.024 0 .032-.14.097-.293.19-.437.28a11.44 11.44 0 0 1-.469.282c-.555.313-1.14.57-1.75.781l-.094.032c-.738.246-1.523.43-2.343.53-.13.016-.278.02-.407.032-.078.008-.14.027-.218.031l-2.063.157v-.126c-.64.516-1.219.872-1.625 1.063-.187.094-.41.172-.625.25-.11.043-.2.086-.312.125-1.114.395-2.047.492-2.094.5-.024.004-.04.027-.063.031-.008.004-.023 0-.031 0-.266.047-.54.086-.812.125-.04.008-.086.024-.126.032a56.488 56.488 0 0 1-4.187.406h-.187c-.075 0-.208.004-.344 0-.059 0-.121-.028-.188-.032-.172-.007-.367-.019-.594-.03-.019-.005-.074.003-.093 0-.469-.032-1.04-.067-1.688-.157l-.062-.031c-.38-.055-.766-.11-1.188-.188l-.562-.093v-.032c-.996-.218-2.082-.511-3.157-.937C.942 41.73 0 42.219 0 43.312 0 47.88 20.813 48 23.188 48 43.313 48 43.977 33.11 44 26.719c2.383-1.34 4-3.883 4-6.407 0-3.968-3.59-7.218-8-7.218M17 15c-4.195 0-8.246 1.672-11.094 4.594C3.286 22.285 1.902 25.809 2 29.53c.164 4.324 2.027 8.297 5.031 11.032 2.149.406 3.785.406 3.813.406 2.64-.168 5.926-.465 7.5-1.25C19.566 39.145 23 36.516 23 32.094 23 26.477 18.809 25 16.594 25 14.105 25 13 26.508 13 28c0 1.285.758 3.188 2.813 3.188.55 0 1 .449 1 1 0 .55-.45 1-1 1C12.695 33.188 11 30.52 11 28c0-2.484 1.918-5 5.594-5C19.969 23 25 25.418 25 32.094c0 4.633-1.031 5.187-2.219 6.25v.062c2.23-.172 4.121-.953 5.625-2.343 1.809-1.676 3.344-3.95 3.594-6.563.375-7.906-6.59-14.5-15-14.5"/></svg>
